flaticon/office/id-card.svg

<svg xmlns="http://www.w3.org/2000/svg" width="32" height="32" viewBox="0 0 24 24">
    <path d="M9.734375 14.226562C9.753906 14.246094 9.777344 14.265625 9.800781 14.28125 10.480469 14.621094 11.160156 14.78125 11.875 14.796875 11.914062 14.800781 11.957031 14.800781 12 14.800781 12.042969 14.800781 12.085938 14.800781 12.125 14.796875 12.839844 14.78125 13.519531 14.621094 14.199219 14.28125 14.222656 14.265625 14.246094 14.246094 14.265625 14.226562 15.769531 13.414062 16.800781 11.824219 16.800781 10 16.800781 7.359375 14.640625 5.199219 12 5.199219 9.359375 5.199219 7.199219 7.359375 7.199219 10 7.199219 11.824219 8.230469 13.414062 9.734375 14.226562zM11.199219 8.398438C11.199219 7.960938 11.558594 7.601562 12 7.601562 12.441406 7.601562 12.800781 7.960938 12.800781 8.398438 12.800781 8.839844 12.441406 9.199219 12 9.199219 11.558594 9.199219 11.199219 8.839844 11.199219 8.398438zM12 10C12.878906 10 13.601562 10.71875 13.601562 11.601562L13.601562 13.664062C13.109375 13.878906 12.566406 14 12 14 11.433594 14 10.890625 13.878906 10.398438 13.664062L10.398438 11.601562C10.398438 10.71875 11.121094 10 12 10zM12 6C14.199219 6 16 7.800781 16 10 16 11.300781 15.371094 12.460938 14.398438 13.195312L14.398438 11.601562C14.398438 10.699219 13.898438 9.910156 13.160156 9.5 13.429688 9.214844 13.601562 8.824219 13.601562 8.398438 13.601562 7.519531 12.878906 6.800781 12 6.800781 11.121094 6.800781 10.398438 7.519531 10.398438 8.398438 10.398438 8.824219 10.570312 9.214844 10.839844 9.5 10.101562 9.910156 9.601562 10.699219 9.601562 11.601562L9.601562 13.195312C8.628906 12.460938 8 11.300781 8 10 8 7.800781 9.800781 6 12 6zM9.199219 16.398438C8.960938 16.398438 8.800781 16.558594 8.800781 16.800781 8.800781 17.039062 8.960938 17.199219 9.199219 17.199219L11.601562 17.199219C11.839844 17.199219 12 17.039062 12 16.800781 12 16.558594 11.839844 16.398438 11.601562 16.398438zM6.398438 17.199219L7.601562 17.199219C7.839844 17.199219 8 17.039062 8 16.800781 8 16.558594 7.839844 16.398438 7.601562 16.398438L6.398438 16.398438C6.160156 16.398438 6 16.558594 6 16.800781 6 17.039062 6.160156 17.199219 6.398438 17.199219zM13.199219 16.398438C12.960938 16.398438 12.800781 16.558594 12.800781 16.800781 12.800781 17.039062 12.960938 17.199219 13.199219 17.199219L15.199219 17.199219C15.441406 17.199219 15.601562 17.039062 15.601562 16.800781 15.601562 16.558594 15.441406 16.398438 15.199219 16.398438zM17.601562 16.398438L16.800781 16.398438C16.558594 16.398438 16.398438 16.558594 16.398438 16.800781 16.398438 17.039062 16.558594 17.199219 16.800781 17.199219L17.601562 17.199219C17.839844 17.199219 18 17.039062 18 16.800781 18 16.558594 17.839844 16.398438 17.601562 16.398438zM6.398438 19.601562L9.601562 19.601562C9.839844 19.601562 10 19.441406 10 19.199219 10 18.960938 9.839844 18.800781 9.601562 18.800781L6.398438 18.800781C6.160156 18.800781 6 18.960938 6 19.199219 6 19.441406 6.160156 19.601562 6.398438 19.601562zM17.601562 18.800781L16 18.800781C15.761719 18.800781 15.601562 18.960938 15.601562 19.199219 15.601562 19.441406 15.761719 19.601562 16 19.601562L17.601562 19.601562C17.839844 19.601562 18 19.441406 18 19.199219 18 18.960938 17.839844 18.800781 17.601562 18.800781zM14.800781 19.199219C14.800781 18.960938 14.640625 18.800781 14.398438 18.800781L11.199219 18.800781C10.960938 18.800781 10.800781 18.960938 10.800781 19.199219 10.800781 19.441406 10.960938 19.601562 11.199219 19.601562L14.398438 19.601562C14.640625 19.601562 14.800781 19.441406 14.800781 19.199219zM10.398438 21.199219L6.398438 21.199219C6.160156 21.199219 6 21.359375 6 21.601562 6 21.839844 6.160156 22 6.398438 22L10.398438 22C10.640625 22 10.800781 21.839844 10.800781 21.601562 10.800781 21.359375 10.640625 21.199219 10.398438 21.199219zM13.199219 21.199219L12 21.199219C11.761719 21.199219 11.601562 21.359375 11.601562 21.601562 11.601562 21.839844 11.761719 22 12 22L13.199219 22C13.441406 22 13.601562 21.839844 13.601562 21.601562 13.601562 21.359375 13.441406 21.199219 13.199219 21.199219zM17.601562 21.199219L14.800781 21.199219C14.558594 21.199219 14.398438 21.359375 14.398438 21.601562 14.398438 21.839844 14.558594 22 14.800781 22L17.601562 22C17.839844 22 18 21.839844 18 21.601562 18 21.359375 17.839844 21.199219 17.601562 21.199219zM17.601562 21.199219"/>
    <path d="M 19.199219 2.398438 L 13.601562 2.398438 L 13.601562 1.601562 C 13.601562 0.71875 12.878906 0 12 0 C 11.121094 0 10.398438 0.71875 10.398438 1.601562 L 10.398438 2.398438 L 4.800781 2.398438 C 4.121094 2.398438 3.601562 2.921875 3.601562 3.601562 L 3.601562 22.800781 C 3.601562 23.480469 4.121094 24 4.800781 24 L 19.199219 24 C 19.878906 24 20.398438 23.480469 20.398438 22.800781 L 20.398438 3.601562 C 20.398438 2.921875 19.878906 2.398438 19.199219 2.398438 Z M 11.199219 2.800781 L 11.199219 2 L 12.800781 2 L 12.800781 3.601562 L 11.199219 3.601562 Z M 12.039062 0.800781 C 12.320312 0.800781 12.601562 0.960938 12.71875 1.199219 L 11.320312 1.199219 C 11.441406 0.960938 11.761719 0.800781 12.039062 0.800781 Z M 19.601562 22.800781 C 19.601562 23.039062 19.441406 23.199219 19.199219 23.199219 L 4.800781 23.199219 C 4.558594 23.199219 4.398438 23.039062 4.398438 22.800781 L 4.398438 3.601562 C 4.398438 3.359375 4.558594 3.199219 4.800781 3.199219 L 10.398438 3.199219 L 10.398438 4 C 10.398438 4.238281 10.558594 4.398438 10.800781 4.398438 L 13.199219 4.398438 C 13.441406 4.398438 13.601562 4.238281 13.601562 4 L 13.601562 3.199219 L 19.199219 3.199219 C 19.441406 3.199219 19.601562 3.359375 19.601562 3.601562 Z M 19.601562 22.800781"/>
</svg>

<svg xmlns="http://www.w3.org/2000/svg" width="32" height="32" viewBox="0 0 24 24">
    <path d="M9.734 14.227c.02.02.043.039.067.054.68.34 1.36.5 2.074.516.04.004.082.004.125.004s.086 0 .125-.004a4.772 4.772 0 0 0 2.074-.516.45.45 0 0 0 .067-.054A4.812 4.812 0 0 0 16.8 10c0-2.64-2.16-4.8-4.801-4.8-2.64 0-4.8 2.16-4.8 4.8a4.812 4.812 0 0 0 2.534 4.227zM11.2 8.398a.801.801 0 0 1 1.602 0 .802.802 0 0 1-1.602 0zM12 10c.879 0 1.602.719 1.602 1.602v2.062a4 4 0 0 1-3.204 0v-2.062c0-.883.723-1.602 1.602-1.602zm0-4c2.2 0 4 1.8 4 4a4 4 0 0 1-1.602 3.195v-1.593c0-.903-.5-1.692-1.238-2.102.27-.285.442-.676.442-1.102 0-.878-.723-1.597-1.602-1.597-.879 0-1.602.719-1.602 1.597 0 .426.172.817.442 1.102a2.404 2.404 0 0 0-1.238 2.102v1.593A4 4 0 0 1 8 10c0-2.2 1.8-4 4-4zm0 0M9.2 16.398c-.24 0-.4.16-.4.403 0 .238.16.398.4.398h2.402c.238 0 .398-.16.398-.398 0-.242-.16-.403-.398-.403zm0 0M6.398 17.2h1.204c.238 0 .398-.16.398-.4 0-.241-.16-.402-.398-.402H6.398c-.238 0-.398.16-.398.403 0 .238.16.398.398.398zm0 0M13.2 16.398c-.24 0-.4.16-.4.403 0 .238.16.398.4.398h2c.241 0 .402-.16.402-.398 0-.242-.16-.403-.403-.403zm0 0M17.602 16.398H16.8c-.242 0-.403.16-.403.403 0 .238.16.398.403.398h.8c.239 0 .399-.16.399-.398 0-.242-.16-.403-.398-.403zm0 0M6.398 19.602h3.204c.238 0 .398-.16.398-.403 0-.238-.16-.398-.398-.398H6.398c-.238 0-.398.16-.398.398 0 .242.16.403.398.403zm0 0M17.602 18.8H16c-.238 0-.398.16-.398.4 0 .241.16.402.398.402h1.602c.238 0 .398-.16.398-.403 0-.238-.16-.398-.398-.398zm0 0M14.8 19.2c0-.24-.16-.4-.402-.4H11.2c-.238 0-.398.16-.398.4 0 .241.16.402.398.402h3.2c.242 0 .402-.16.402-.403zm0 0M10.398 21.2h-4c-.238 0-.398.16-.398.402 0 .238.16.398.398.398h4c.243 0 .403-.16.403-.398 0-.243-.16-.403-.403-.403zm0 0M13.2 21.2H12c-.238 0-.398.16-.398.402 0 .238.16.398.398.398h1.2c.241 0 .402-.16.402-.398 0-.243-.16-.403-.403-.403zm0 0M17.602 21.2H14.8c-.242 0-.403.16-.403.402 0 .238.16.398.403.398h2.8c.239 0 .399-.16.399-.398 0-.243-.16-.403-.398-.403zm0 0"/>
    <path d="M19.2 2.398h-5.598v-.796C13.602.719 12.879 0 12 0c-.879 0-1.602.719-1.602 1.602v.796H4.801c-.68 0-1.2.524-1.2 1.204V22.8c0 .68.52 1.199 1.2 1.199h14.398c.68 0 1.2-.52 1.2-1.2V3.603c0-.68-.52-1.204-1.2-1.204zm-8 .403V2h1.6v1.602h-1.6zm.84-2c.28 0 .562.16.679.398H11.32c.121-.238.442-.398.72-.398zm7.562 22c0 .238-.16.398-.403.398H4.801c-.242 0-.403-.16-.403-.398V3.6c0-.242.16-.402.403-.402h5.597V4c0 .238.16.398.403.398h2.398c.242 0 .403-.16.403-.398v-.8h5.597c.242 0 .403.16.403.402zm0 0"/>
</svg>
